X: 13359
T: Flax In Bloom, The
R: reel
M: 4/4
K: Dmajor
|:D2DD ADFA|fedf edB2|AFFF dfaf|gefd edBA|
D2DD ADFA|f2ff edB2|AFFF ABdf|afeg fede|
|:f2ff egfe|dedA BAFA|DFAD FAdf|gefd edBd|
fedf edce|d3A BAFA|DFAD FAdf|afeg fed2:|

